public/svgs/regular/calendar-lines.svg

<svg xmlns="http://www.w3.org/2000/svg" viewBox="0 0 448 512"><!-- Font Awesome Pro 6.0.0-alpha2 by @fontawesome - https://fontawesome.com License - https://fontawesome.com/license (Commercial License) --><path d="M384 64H344V24C344 10.75 333.25 0 320 0S296 10.75 296 24V64H152V24C152 10.75 141.25 0 128 0S104 10.75 104 24V64H64C28.654 64 0 92.652 0 128V448C0 483.348 28.654 512 64 512H384C419.346 512 448 483.348 448 448V128C448 92.652 419.346 64 384 64ZM400 448C400 456.824 392.822 464 384 464H64C55.178 464 48 456.824 48 448V192H400V448ZM120 304H328C341.25 304 352 293.25 352 280S341.25 256 328 256H120C106.75 256 96 266.75 96 280S106.75 304 120 304ZM120 400H232C245.25 400 256 389.25 256 376S245.25 352 232 352H120C106.75 352 96 362.75 96 376S106.75 400 120 400Z"/></svg>

<svg xmlns="http://www.w3.org/2000/svg" viewBox="0 0 448 512"><!--! Font Awesome Pro 6.5.1 by @fontawesome - https://fontawesome.com License - https://fontawesome.com/license (Commercial License) Copyright 2023 Fonticons, Inc. --><path d="M152 24c0-13.3-10.7-24-24-24s-24 10.7-24 24V64H64C28.7 64 0 92.7 0 128v16 48V448c0 35.3 28.7 64 64 64H384c35.3 0 64-28.7 64-64V192 144 128c0-35.3-28.7-64-64-64H344V24c0-13.3-10.7-24-24-24s-24 10.7-24 24V64H152V24zM48 192H400V448c0 8.8-7.2 16-16 16H64c-8.8 0-16-7.2-16-16V192zm48 88c0 13.3 10.7 24 24 24H328c13.3 0 24-10.7 24-24s-10.7-24-24-24H120c-13.3 0-24 10.7-24 24zm24 72c-13.3 0-24 10.7-24 24s10.7 24 24 24H232c13.3 0 24-10.7 24-24s-10.7-24-24-24H120z"/></svg>
